assets/icons/qvision/dehaze.svg

<svg width="24" height="24" viewBox="0 0 24 24" fill="none" xmlns="http://www.w3.org/2000/svg">
<g clip-path="url(#clip0_147_3360)">
<path d="M2 15.5V17.5H22V15.5H2ZM2 10.5V12.5H22V10.5H2ZM2 5.5V7.5H22V5.5H2Z" fill="#323232"/>
</g>
<defs>
<clipPath id="clip0_147_3360">
<rect width="24" height="24" fill="white"/>
</clipPath>
</defs>
</svg>

<svg xmlns="http://www.w3.org/2000/svg" height="24" viewBox="0 0 24 24" width="24"><path d="M0 0h24v24H0z" fill="none"/><path d="M2 15.5v2h20v-2H2zm0-5v2h20v-2H2zm0-5v2h20v-2H2z"/></svg>
